X:1
T:Lambeth, CM
T:Lambeth, CM
T:Wilhelm August Ferdinand Schulthes, 1871
T:Public Domain Courtesy of the Cyber Hymnal™
C:Wilhelm August Ferdinand Schulthes, 1871
Z:Public Domain
Z:Courtesy of the Cyber Hymnal™
%%score ( 1 2 ) ( 3 4 )
L:1/8
Q:1/4=125
M:3/4
K:G
V:1 treble 
V:2 treble 
V:3 bass 
V:4 bass 
V:1
 [GB]2 [GB]2 [GB]2 | [Fc]4 [CF]2 | [CE]4 [CF]2 | [B,G]6 | [DG]2 [DA]2 [DB]2 | [Ed]4 [Ec]2 | [GB]6 | %7
 [FA]6 | [GB]2 [GB]2 [GB]2 | [Fc]4 [CF]2 | [CE]4 [CF]2 | [B,G]6 | [^CG]2 [CF]2 [CG]2 | B4 [FA]2 | %14
 [B,G]6 |] %15
V:2
 x6 | x6 | x6 | x6 | x6 | x6 | x6 | x6 | x6 | x6 | x6 | x6 | x6 | (D2 G2) x2 | x6 |] %15
V:3
 [G,D]2 [G,D]2 [G,D]2 | [A,D]4 [D,A,]2 | [D,G,]4 [D,A,]2 | [G,,G,]6 | [B,,G,]2 [D,F,]2 G,2 | %5
 [C,^G,]4 [C,A,]2 | [D,D]6- | [D,D]6 | [G,D]2 [G,D]2 [G,D]2 | [A,D]4 [D,A,]2 | [D,G,]4 [D,A,]2 | %11
 [E,G,]6 | [E,G,]2 [E,A,]2 [E,G,]2 | (G,2 B,2) [D,C]2 | [G,,G,]6 |] %15
V:4
 x6 | x6 | x6 | x6 | x6 | x6 | x6 | x6 | x6 | x6 | x6 | x6 | x6 | D,4 x2 | x6 |] %15

